images/01/accounting-withdraw.svg

<svg fill="none" height="24" viewBox="0 0 24 24" width="24" xmlns="http://www.w3.org/2000/svg"><g stroke="#f43319" stroke-linecap="round" stroke-linejoin="round" stroke-width="1.5"><path clip-rule="evenodd" d="m14.7578 21.375h-12.50802c-.21834.0001-.42587-.095-.5684-.2604s-.20592-.3847-.1736-.6006l5.871-14.139h10.50002l-2.379 14.139c.0323.2159-.0311.4352-.1736.6006-.1426.1654-.3501.2605-.5684.2604z" fill-rule="evenodd"/><path d="m12.5249 11.1989-1.969-.5c-.62316-.1607-1.27259.1439-1.54742.7258-.27482.5819-.09754 1.277.4224 1.6562l1.79302 1.312c.5136.381.6867 1.0718.4134 1.65s-.9169.883-1.5374.728l-1.97002-.5"/><path d="m11.0718 10.828.373-1.453"/><path d="m9.20996 18.0936.372-1.453"/><path d="m2.25 10.125h-.75c-.41421 0-.75-.33579-.75-.75v-6c0-.41421.33579-.75.75-.75h21c.4142 0 .75.33579.75.75v6c0 .41421-.3358.75-.75.75h-2.25"/></g></svg>

<svg xmlns="http://www.w3.org/2000/svg" width="24" height="24" viewBox="0 0 24 24" fill="none"><path fill-rule="evenodd" clip-rule="evenodd" d="M14.7578 21.375H2.24978C2.03144 21.3751 1.82391 21.28 1.68138 21.1146C1.53885 20.9492 1.47546 20.7299 1.50778 20.514L7.37878 6.375H17.8788L15.4998 20.514C15.5321 20.7299 15.4687 20.9492 15.3262 21.1146C15.1836 21.28 14.9761 21.3751 14.7578 21.375V21.375Z" stroke="#F43319" stroke-width="1.5" stroke-linecap="round" stroke-linejoin="round"/><path d="M12.5249 11.1989L10.5559 10.6989C9.93274 10.5382 9.28331 10.8428 9.00848 11.4247C8.73366 12.0066 8.91094 12.7017 9.43088 13.0809L11.2239 14.3929C11.7375 14.7739 11.9106 15.4647 11.6373 16.0429C11.364 16.6211 10.7204 16.9259 10.0999 16.7709L8.12988 16.2709" stroke="#F43319" stroke-width="1.5" stroke-linecap="round" stroke-linejoin="round"/><path d="M11.0718 10.828L11.4448 9.375" stroke="#F43319" stroke-width="1.5" stroke-linecap="round" stroke-linejoin="round"/><path d="M9.20996 18.0936L9.58196 16.6406" stroke="#F43319" stroke-width="1.5" stroke-linecap="round" stroke-linejoin="round"/><path d="M2.25 10.125H1.5C1.08579 10.125 0.75 9.78921 0.75 9.375V3.375C0.75 2.96079 1.08579 2.625 1.5 2.625H22.5C22.9142 2.625 23.25 2.96079 23.25 3.375V9.375C23.25 9.78921 22.9142 10.125 22.5 10.125H20.25" stroke="#F43319" stroke-width="1.5" stroke-linecap="round" stroke-linejoin="round"/></svg>
